X:358
T:Polska efter Mårten Andersson
R:Polska
Z:LP
O:Ljusdal, Hälsingland
B:Svenska Låtar Hälsingland
N: SL Hälsingland 358
S:Mårten Andersson
M:3/4
L:1/8
K:Bb
|:B,>D DF FB| Bd (d/B/)F/D/ E2|C>F Fz/A/ Ac|ce (e/c/)A/c/ B2:|
|:d>f ff ff|db (b/a/)g/^f/ g2|e>g gg gg|eb ba/g/ =f2|d>f ff ff|
  db (b/a/)g/^f/ g2|ee ce/c/ Ac/A/|=FG/A/ [D4B4]:|
|:DF/B/ dB FD|EG/B/ eB GE|FA/c/ ec AF|BB dB/d/ f2|
  DF/B/ dB FD|EG/B/ eB GE|FA/c/ ec AF|(=E/F/)G/A/ [D4B4]:|

